X:112
T:Scatter the Mud
T:White Crow, The
R:jig
H:See also "Frehan's No. 2", #168
D:Davy Spillane: Shadow Hunter
Z:id:hn-jig-112
M:6/8
K:Ador
eAA BAA|eAA ABd|eAA BAA|edB GBd|eAA BAA|eAA ABA|GAB d2e|dBA ABd:|
eaa g2e|dBA GBd|eaa g2a|bag a2g|eaa bag|edB GBA|GAB d2e|dBA ABd:|
P:Variations:
|:eAA (3BcB A|eAA ABd|eAA B2A|dBG Ged|eAA B2A|eAA AGE|GAB dge|dBA ABd:|
aba (3gag e|dBA GBd|aba g2a|bag (3aba g|eaa bag|edB GBA|GAB dge|dBA ABd|
eaa egg|dBA ABd|eaa ega|bag a2g|eaf g2e|dBA AGE|GAB dge|dBA ABd||

